libs/icons/src/svg/fullscreen.svg

<svg width="16" height="16" viewBox="0 0 16 16" fill="none" xmlns="http://www.w3.org/2000/svg">
<g clip-path="url(#clip0_4_311)">
<path fill-rule="evenodd" clip-rule="evenodd" d="M9.52861 5.52858L13.0572 1.99999H10.6667C10.2985 1.99999 10 1.70151 10 1.33332C10 0.965133 10.2985 0.666656 10.6667 0.666656H14.6666H14.6667C14.7571 0.666656 14.8433 0.684647 14.9219 0.717242C15.0005 0.749775 15.0742 0.798001 15.1381 0.861919C15.2601 0.983957 15.325 1.14154 15.3326 1.30134C15.3331 1.312 15.3334 1.32266 15.3334 1.33332V1.33398V5.33332C15.3334 5.70151 15.0349 5.99999 14.6667 5.99999C14.2985 5.99999 14 5.70151 14 5.33332V2.9428L10.4714 6.47139C10.2111 6.73174 9.78896 6.73174 9.52861 6.47139C9.26827 6.21104 9.26827 5.78893 9.52861 5.52858ZM2.94283 14L6.47142 10.4714C6.73177 10.211 6.73177 9.78893 6.47142 9.52858C6.21108 9.26824 5.78896 9.26824 5.52862 9.52858L2.00002 13.0572V10.6667C2.00002 10.2985 1.70154 9.99999 1.33335 9.99999C0.965164 9.99999 0.666687 10.2985 0.666687 10.6667V14.6665V14.6667C0.666687 14.757 0.684677 14.8432 0.717273 14.9218C0.749806 15.0005 0.798031 15.0741 0.861949 15.1381C0.983988 15.2601 1.14157 15.3249 1.30137 15.3326C1.31203 15.3331 1.32269 15.3333 1.33335 15.3333H1.33401H5.33335C5.70154 15.3333 6.00002 15.0348 6.00002 14.6667C6.00002 14.2985 5.70154 14 5.33335 14H2.94283ZM15.3334 14.666V10.6667C15.3334 10.2985 15.0349 9.99999 14.6667 9.99999C14.2985 9.99999 14 10.2985 14 10.6667V13.0572L10.4714 9.52858C10.2111 9.26824 9.78896 9.26824 9.52861 9.52858C9.26827 9.78893 9.26827 10.211 9.52861 10.4714L13.0572 14H10.6667C10.2985 14 10 14.2985 10 14.6667C10 15.0348 10.2985 15.3333 10.6667 15.3333H14.666C14.6663 15.3333 14.6665 15.3333 14.6667 15.3333C14.6773 15.3333 14.688 15.3331 14.6987 15.3326C14.8585 15.3249 15.0161 15.2601 15.1381 15.1381C15.202 15.0741 15.2502 15.0005 15.2828 14.9218C15.3146 14.845 15.3325 14.761 15.3333 14.6728C15.3333 14.6708 15.3334 14.6687 15.3334 14.6667V14.666ZM5.33335 1.99999H2.94283L7.13809 6.19525C7.39844 6.4556 7.39844 6.87771 7.13809 7.13806C6.87774 7.39841 6.45563 7.39841 6.19528 7.13806L2.00002 2.9428V5.33332C2.00002 5.70151 1.70154 5.99999 1.33335 5.99999C0.965164 5.99999 0.666687 5.70151 0.666687 5.33332V1.33332C0.666687 0.965133 0.965164 0.666656 1.33335 0.666656H5.33335C5.70154 0.666656 6.00002 0.965133 6.00002 1.33332C6.00002 1.70151 5.70154 1.99999 5.33335 1.99999Z" fill="#202327"/>
</g>
<defs>
<clipPath id="clip0_4_311">
<rect width="16" height="16" fill="white"/>
</clipPath>
</defs>
</svg>

<svg xmlns="http://www.w3.org/2000/svg" viewBox="0 0 16 16" class="sageicon"><path fill-rule="evenodd" d="M9.529 5.529 13.057 2h-2.39a.667.667 0 1 1 0-1.333h4a.665.665 0 0 1 .666.666v4.001a.667.667 0 0 1-1.333 0V2.942L10.471 6.47a.667.667 0 1 1-.942-.942ZM2.943 14l3.528-3.529a.667.667 0 0 0-.942-.942L2 13.057v-2.39a.667.667 0 1 0-1.333 0v4a.665.665 0 0 0 .666.666h4.001a.667.667 0 0 0 0-1.333H2.942Zm12.39.666v-4a.667.667 0 0 0-1.333 0v2.391L10.471 9.53a.667.667 0 1 0-.942.942L13.057 14h-2.39a.667.667 0 0 0 0 1.333h4.032a.665.665 0 0 0 .634-.66v-.007ZM5.333 2h-2.39l4.195 4.195a.667.667 0 1 1-.943.943L2 2.943v2.39a.667.667 0 0 1-1.333 0v-4c0-.368.298-.666.666-.666h4a.667.667 0 1 1 0 1.333Z"/></svg>
